!!!!SEGMENT: pl-kk--kk-i-203--001_anonim--justum-deduxit-dominus.krn
!!!cenid: 16xx:760
!!!COM: Anonim
!!!COM-rismid: pe30004985
!!!CDT:
!!!CNT:
!!!OTL: Justum deduxit Dominus
!!!PDT:
!!!AGN: Sacred
!!!SMS-siglum: PL-Kk
!!!SMS-shelfmark: Kk.I.203
!!!SMS-shelfwork: 001 W
!!!SMS-variant:
!!!SMS-altvar:
!!!NIFC-rismid: 1001143746
!!!URL-scan: http://repozytorium.nifc.pl/skany/pl-kk-nut--i-203
!!!ONB-nifc: UWAGA: utwory w zbiorze: 1. Justum deduxit Dominus, 2. Os iusti meditabitur
!!!key:
**kern	**text	**kern	**text	**kern	**text	**kern	**text	**kern	**text
*part5	*part5	*part4	*part4	*part3	*part3	*part2	*part2	*part1	*part1
*staff5	*staff5	*staff4	*staff4	*staff3	*staff3	*staff2	*staff2	*staff1	*staff1
*Iempty	*	*Iempty	*	*Itenor	*	*Ialto	*	*Ivox	*
*I"Baſso.	*	*I"Baſso.	*	*I"Tenore.	*	*I"Alto.	*	*I"Canto.	*
*I'B	*	*I'B	*	*I'T	*	*I'A	*	*I'S	*
*clefF4	*	*clefF4	*	*clefC4	*	*clefC3	*	*clefC1	*
*k[b-]	*	*k[b-]	*	*k[b-]	*	*k[b-]	*	*k[b-]	*
*g:dor	*	*g:dor	*	*g:dor	*	*g:dor	*	*g:dor	*
*M2/2	*	*M2/2	*	*M2/2	*	*M2/2	*	*M2/2	*
*met(c|)	*	*met(c|)	*	*met(c|)	*	*met(c|)	*	*met(c|)	*
=1	=1	=1	=1	=1	=1	=1	=1	=1	=1
!LO:TX:t=P:problem=przed kluczem akord G B- d - bez caudy	!	!LO:TX:t=P:problem=przed kluczem akord G B- d - bez caudy	!	!	!	!	!	!	!
!LO:TX:t=P:problem=znaki[BB- B-]	!	!LO:TX:t=P:problem=znaki[BB- B-]	!	!	!	!LO:TX:a:t=1.	!	!	!
1r	.	1r	.	1r	.	1r	.	1dd\	Ju-
=2	=2	=2	=2	=2	=2	=2	=2	=2	=2
*	*	*	*	*	*	*	*	*2\right	*
!	!	!	!	!	!	!	!	!LO:TX:t=P:problem=2\right&colon; global	!
!	!	!	!	!	!	!	!	!LO:TX:t=P:global:problem=oddech jako rozdzielacz słów	!
1G\	Ju-	1G\	Ju-	1B-\	Ju-	1g\	Ju-	2dd,<\	-stum
.	.	.	.	.	.	.	.	2dd\	de-
=3	=3	=3	=3	=3-	=3	=3-	=3	=3	=3
*2\right	*	*2\right	*	*2\right	*	*2\right	*	*	*
!LO:TX:t=P:global:problem=oddech jako rozdzielacz słów	!	!LO:TX:t=P:global:problem=oddech jako rozdzielacz słów	!	!LO:TX:t=P:global:problem=oddech jako rozdzielacz słów	!	!LO:TX:t=P:global:problem=oddech jako rozdzielacz słów	!	!	!
!LO:TX:t=P:problem=2\right&colon; global	!	!LO:TX:t=P:problem=2\right&colon; global	!	!LO:TX:t=P:problem=2\right&colon; global	!	!LO:TX:t=P:problem=2\right&colon; global	!	!	!
2G,<\	-stum	2G,<\	-stum	2B-,<\	-stum	2g,<\	-stum	2b-\	-du-
2G\	de-	2G\	de-	2B-\	de-	2g\	de-	2dd,<\	-xit
=4	=4	=4	=4	=4	=4	=4	=4	=4	=4
!	!	!	!	!	!	!LO:TX:t=P:problem=kasownik an	!	!	!
2C/	-du-	2C/	-du-	2G/	-du-	2e\	-du-	2.cc\	Do-
2En\	-xit	2En\	-xit	2c,<\	-xit	2g,<\	-xit	.	.
.	.	.	.	.	.	.	.	4b-\	.
=5	=5	=5	=5	=5	=5	=5	=5	=5	=5
2.F\	Do-	2.F\	Do-	2.c\	Do-	(1f\	Do-	1a\	.
4F\	-mi-	4F\	-mi-	4c\	-mi-	.	.	.	.
=6	=6	=6	=6	=6	=6	=6-	=6	=6	=6
2C,</	-n(us)	2C,</	-n(us)	2c,<\	-n(us)	2en\)	.	2.g/	.
2C/	per	2C/	per	2c\	per	2e\	-mi-	.	.
.	.	.	.	.	.	.	.	4g/	-mi-
=7	=7	=7	=7	=7	=7	=7	=7	=7	=7
1D\	vi-	1D\	vi-	(2A\	vi-	2d,<\	-n(us)	2f,</	-n(us)
.	.	.	.	2Bn\)	.	2d\	per	2f/	per
=8-	=8	=8-	=8	=8	=8	=8	=8	=8	=8
2C/	-as	2C/	-as	2c,<\	-as	2e\	vi-	2g\	vi-
!LO:TX:a:t=P:problem=♭ above	!	!	!	!	!	!	!	!	!
1BB-X/	.	[2BB-/	.	1d\	re-	(1f\	-as	(1b-\	-as
=9-	=9	=9	=9	=9-	=9	=9-	=9	=9-	=9
.	.	2BB-/]	.	.	.	.	.	.	.
2C,</	.	2C,</	.	1c\	.	2e\)	.	2a\)	.
=10	=10	=10	=10	=10-	=10	=10	=10	=10	=10
1G\	re-	1G\	re-	.	.	1d\	re-	1g\	re-
.	.	.	.	2Bn\	.	.	.	.	.
=11-	=11	=11	=11	=11	=11	=11-	=11	=11	=11
2C,</	-ctas,	2C,</	-ctas,	2c,<\	-ctas	0e\,<	-ctas	0g\,<	-ctas,
1C/	et	1C/	et	1c\	et	.	.	.	.
=12-	=12	=12-	=12	=12	=12	=12	=12	=12	=12
2C/	-o-	2C/	-o-	2c\	o-	.	.	.	.
=13	=13	=13	=13	=13	=13	=13	=13	=13	=13
!	!	!	!	!	!	!LO:TX:a:t=1.	!	!	!
2D\	-sten-	2D\	-sten-	2B-X\	-sten-	1r	.	0r	.
2E\	-dit	2E\	-dit	2G/,<	-dit	.	.	.	.
!	!	!LO:LB:g=original	!	!LO:LB:g=original	!	!	!	!	!
=14-	=14	=14	=14	=14	=14	=14	=14	=14	=14
2F\	il-	2F\	il-	1A\	il-	2c/	et	.	.
1F\	-li	1F\	-li	.	.	2c/	o-	.	.
=15-	=15	=15-	=15	=15	=15	=15	=15	=15	=15
.	.	.	.	2B-,<\	-li	(2d\	-sten-	2g/	et
2E\	o-	2E\	o-	2c\	o-	2e\)	.	2g/	o-
!LO:LB:g=original	!	!	!	!	!	!LO:LB:g=original	!	!	!
=16	=16	=16	=16	=16	=16	=16	=16	=16	=16
1D\	-sten-	1D\	-sten-	1d\	-sten-	2f,<\	-dit	(2a\	-sten-
.	.	.	.	.	.	1f\	il-	2bn\)	.
!	!	!	!	!	!	!	!	!LO:LB:g=original	!
=17-	=17	=17	=17	=17	=17	=17-	=17	=17	=17
2C,</	-dit	2C,</	-dit	1G/,<	-dit	.	.	2cc,<\	-dit
(2C/	Re-	(<2C/	Re-	.	.	2e\	.	1cc\	il-
=18	=18	=18	=18	=18	=18	=18	=18	=18-	=18
2G\)	.	2G\)	.	1r	.	1d\,<	-li	.	.
2G\	-gnum	2G\	-gnum	.	.	.	.	2bn\	.
=19	=19	=19	=19	=19	=19	=19	=19	=19	=19
!LO:TX:a:t=P:problem=♮ above	!	!	!	!LO:SIC:v:s=2c	!	!	!	!	!
4E\	De-	4E\	De-	2B-\	Re-	2g\	Re-	1cc\,<	-li,
4C/	.	4C/	.	.	.	.	.	.	.
2E\	.	2E\	.	2c,<\	-gnum	2g\	-gnum	.	.
=20-	=20	=20	=20	=20	=20	=20	=20	=20	=20
!	!	!	!	!	!	!	!	!LO:TX:a:t=1.	!
*	*	*	*	*	*	*	*ij	*	*
1D\,<	-i.	1D\	-i.	4A/	De-	(4f\	Re-	1r	.
.	.	.	.	4F/	.	4d\)	.	.	.
.	.	.	.	2A\	.	2f\	.	.	.
=21	=21	=21	=21	=21	=21	=21	=21	=21	=21
4r	.	4r	.	1G/,<	-i	2e,<\	-gnum	2r	.
*	*	*	*	*	*	*	*Xij	*	*
2C/	Re-	2C/	Re-	.	.	.	.	.	.
.	.	.	.	.	.	2e\	De-	[y2g/	Re-
4C/	-gnum	4C/	-gnum	.	.	.	.	.	.
=22	=22	=22	=22	=22	=22	=22	=22	=22	=22
!	!	!	!	!	!	!	!	!LO:N:xstem:cue	!
*	*ij	*	*ij	*	*	*	*	*	*
4BB-/	Re-	4BB-/	Re-	1r	.	4d/	.	4g/]	.
4GG/	.	4GG/	.	.	.	4B-/	.	4f/	.
2BB-,</	-gnum	2BB-,</	-gnum	.	.	2d\	.	4e/	.
*	*Xij	*	*Xij	*	*	*	*	*	*
!	!	!	!	!	!	!	!	!LO:SIC:v:s=4d	!
.	.	.	.	.	.	.	.	4c/	.
=23	=23	=23	=23	=23	=23	=23	=23	=23	=23
1AA/	De-	1AA/	De-	2.c\	Re-	1c\,<	-i.	2f/	.
.	.	.	.	.	.	.	.	(4e/	-gnum
.	.	.	.	4c\	-gn(um)	.	.	4f/)	.
=24-	=24	=24-	=24	=24	=24	=24	=24	=24	=24
*	*	*	*	*	*ij	*	*	*	*
1GG/	-i,	1GG/	-i,	(4B-\	Re-	0r	.	1.g\	De-
.	.	.	.	4G/	.	.	.	.	.
.	.	.	.	2B-\)	-gn(um)	.	.	.	.
*	*	*	*	*	*Xij	*	*	*	*
=25	=25	=25	=25	=25	=25	=25	=25	=25-	=25
1r	.	1r	.	1A\	De-	.	.	.	.
.	.	.	.	.	.	.	.	2f#X/	.
=26-	=26	=26	=26	=26-	=26	=26	=26	=26	=26
2r	.	2r	.	2G,</	-i,	2r	.	2g,\	-i;
2C/	et	2C/	et	1G/	et	2en\	et	2cc\	et
=27	=27	=27	=27	=27-	=27	=27	=27	=27	=27
2E\	de-	2E\	de-	.	.	2e\	de-	2cc\	de-
!	!	!LO:SIC:v:custos E	!	!	!	!	!	!	!
2G,<\	-dit	2G\	-dit	2G/	de-	2e\	-dit	2cc\	-dit
!	!	!LO:LB:g=original	!	!	!	!	!	!	!
=28	=28	=28	=28	=28	=28	=28	=28	=28	=28
2E\	il-	(2E\	il-	2G/	-dit	1e\	il-	1cc\	il-
1C,</	-li	2C/)	.	2c\	il-	.	.	.	.
=29	=29	=29	=29	=29	=29	=29-	=29	=29	=29
.	.	2C,</	-li	2G,</	-li	2e,<\	-li	2cc,\	-li
!LO:TX:a:t=P:problem=custos BB-	!	!	!	!	!	!	!	!	!
2C/	Sci-	2C/	Sci-	2G/	Sci-	2e\	Sci-	2cc\	Sci-
!LO:LB:g=original	!	!	!	!LO:LB:g=original	!	!	!	!	!
=30	=30	=30	=30	=30	=30	=30	=30	=30	=30
1.BB-X/	-en-	1.BB-X/	-en-	1.B-\	-en-	1.f\	-en-	1.dd\	-en-
=31-	=31	=31-	=31	=31-	=31	=31-	=31	=31-	=31
2F\	-ti-	2F\	-ti-	2A/	-ti-	2f\	-ti-	2cc\	-ti-
!	!	!	!	!	!	!LO:LB:g=original	!	!LO:LB:g=original	!
=32	=32	=32	=32	=32	=32	=32	=32	=32	=32
2C,</	-am	2C/	-am	2G,</	-am	2e,<\	-am	2cc,\	-am
2C/	San-	2C/	San-	2G/	San-	2e\	San-	2cc\	San-
=33-	=33	=33-	=33	=33	=33	=33	=33	=33	=33
0D\	-cto-	0D\	-cto-	2.F/	-cto-	0d\	-cto-	2.a\	-cto-
.	.	.	.	4G/	.	.	.	4g/	.
=34-	=34	=34-	=34	=34-	=34	=34-	=34	=34	=34
.	.	.	.	1A\	.	.	.	1f/	.
=35	=35	=35	=35	=35	=35	=35-	=35	=35	=35
2AA,</	-rum	2AA,</	-rum	2A,</	-rum	2c,</	-rum	2e,</	-rum
2AA/	San-	2AA/	San-	2A/	San-	2c/	San-	2e/	San-
=36-	=36	=36	=36	=36	=36	=36	=36	=36	=36
2BB-/	.	2BB-/	.	0F/	-cto-	2.B-/	-cto-	2d/	-cto-
1B-\	.	1B-\	.	.	.	.	.	1dd\	.
.	.	.	.	.	.	4c/	.	.	.
=37-	=37	=37-	=37	=37-	=37	=37	=37	=37-	=37
.	.	.	.	.	.	4d\	.	.	.
.	.	.	.	.	.	4e\	.	.	.
2A\	-cto-	2A\	-cto-	.	.	1f\	.	2cc\	.
=38	=38	=38	=38	=38	=38	=38	=38	=38	=38
0G\	.	0G\	.	0G/	.	.	.	0b-X\	.
.	.	.	.	.	.	4e\	.	.	.
.	.	.	.	.	.	4d\	.	.	.
=39-	=39	=39-	=39	=39-	=39	=39	=39	=39-	=39
.	.	.	.	.	.	1e\	.	.	.
=40-	=40	=40	=40	=40	=40	=40	=40	=40	=40
[y1F\,<	-rum	[y1F\	-rum	2C,</	-rum	1f\,<	-rum.	1a\,<	-rum
.	.	.	.	2c\	de-	.	.	.	.
=41	=41	=41	=41	=41	=41	=41	=41	=41	=41
!LO:N:xstem:cue:vis=4	!	!LO:N:xstem:cue:vis=4	!	!	!	!	!	!	!
2F\]	.	2F\]	.	2c\	-dit	2r	.	2r	.
2F\	de-	2F\	de-	2c\	il-	2f\	de-	2a\	de-
=42	=42	=42	=42	=42	=42	=42	=42	=42	=42
2F,<\	-dit	2F,<\	-dit	1.A\	-li	2f,<\	-dit	2a,<\	-dit
2F\	il-	2F\	il-	.	.	2f\	il-	2cc\	il-
=43-	=43	=43	=43	=43-	=43	=43	=43	=43	=43
1.D\	-li	1.D\	-li	.	.	1.f\,<	-li	1.dd\,	-li
.	.	.	.	2F/	Sci-	.	.	.	.
=44-	=44	=44-	=44	=44	=44	=44-	=44	=44-	=44
.	.	.	.	1.B-\	-en-	.	.	.	.
2BB-/	Sci-	2BB-/	Sci-	.	.	2f\	Sci-	2dd\	Sci-
!	!	!LO:LB:g=original	!	!	!	!	!	!	!
=45	=45	=45	=45	=45-	=45	=45	=45	=45	=45
2E-X\	-en-	2E-X\	-en-	.	.	2g\	-en-	2g/	-en-
2E-\	-ti-	2E-\	-ti-	2B-\	-ti-	2g\	-ti-	2g/	-ti-
=46	=46	=46	=46	=46	=46	=46	=46	=46	=46
!LO:SIC:v:s=2E-	!	!LO:SIC:v:s=2E-	!	!	!	!	!	!	!
2E,<\	-am	2E,<\	-am	2.c,<\	-am	2g,<\	-am	2g/	-am
!LO:SIC:v:s=2E-	!	!LO:SIC:v:s=2E-	!	!	!	!	!	!	!
2E\	San-	2E\	San-	.	.	2g\	San-	1ee-X\	San-
.	.	.	.	4B-\	San-	.	.	.	.
=47-	=47	=47-	=47	=47	=47	=47	=47	=47-	=47
0F\	-cto-	0F\	-cto-	2A\	-cto-	0f\	-cto-	.	.
.	.	.	.	1B-\	.	.	.	2dd\	.
!	!	!	!	!	!	!	!	!LO:LB:g=original	!
=48-	=48	=48-	=48	=48-	=48	=48-	=48	=48	=48
.	.	.	.	.	.	.	.	1cc\	-cto-
.	.	.	.	2A\	.	.	.	.	.
!	!	!	!	!LO:LB:g=original	!	!	!	!	!
=49-	=49	=49	=49	=49	=49	=49	=49	=49	=49
0BB-/;	-rum.	0BB-/;	-rum.	0B-\;	-rum.	0f\;<	-rum.	0dd\;	-rum.
!LO:LB:g=original	!	!	!	!	!	!	!	!	!
=50-	=50	=50-	=50	=50	=50	=50-	=50	=50	=50
!	!	!	!	!	!	!LO:LB:g=original	!	!	!
=51||	=51||	=51||	=51||	=51||	=51||	=51||	=51||	=51||	=51||
*M2/2	*	*M2/2	*	*M2/2	*	*M2/2	*	*M2/2	*
*met(c|)	*	*met(c|)	*	*met(c|)	*	*met(c|)	*	*met(c|)	*
*k[b-b-]	*	*	*	*	*	*	*	*	*
!LO:TX:a:t=P:problem=znaki B-&BB-	!	!	!	!	!	!	!	!	!
2.F\	Ho-	2.F\	Ho-	2.A/	Ho-	2.f\	Ho-	2.cc\	Ho-
4F\	-ne-	4F\	-ne-	4A/	-ne-	4f\	-ne-	4cc\	-ne-
=52	=52	=52	=52	=52	=52	=52	=52	=52	=52
2F\	-ſta-	2F\	-sta-	2A/	-sta-	2f\	-sta-	2cc\	-sta-
2C,</	-vit	2C,</	-vit	2G,</	-vit	2e,<\	-vit	2cc\	-vit
=53-	=53	=53	=53	=53	=53	=53	=53	=53	=53
1D\	il-	1D\	il-	1F/	il-	1d\	il-	(2a\	il-
.	.	.	.	.	.	.	.	2bn\)	.
=54-	=54	=54-	=54	=54-	=54	=54	=54	=54	=54
1C/,<	-lum	1C/,<	-lum	1G/,<	-lum	1e\,<	-lum	1cc\,<	-lum
=55	=55	=55	=55	=55	=55	=55	=55	=55	=55
1GG/,<	in	1GG/	in	1B-\	in	1g\	in	1dd\	in
=56-	=56	=56-	=56	=56	=56	=56-	=56	=56	=56
2D\	la-	2D\	la-	2A/	la-	2f\	la-	2dd\	la-
!	!	!	!	!	!	!LO:SIC:v:s=1e-	!	!	!
1E-X\	-bo-	1E-X\	-bo-	1G/	-bo-	1e\	-bo-	1b-\	-bo-
=57-	=57	=57-	=57	=57-	=57	=57-	=57	=57-	=57
2F\	.	2F\	.	1F/	.	[2c/	.	2a\	.
=58	=58	=58	=58	=58-	=58	=58	=58	=58	=58
2.C/	.	2.C/	.	.	.	2.c/]	.	2.g/	.
.	.	.	.	2E/	-ri-	.	.	.	.
4C/	-ri-	4C/	-ri-	.	.	4c/	-ri-	4g/	-ri-
=59-	=59	=59	=59	=59	=59	=59	=59	=59-	=59
2FF,</	-bus	2FF,</	-bus	2F,</	-bus	1c\,<	-bus,	1a\,<	-bus
2F\	in	2F\	in	2F/	in	.	.	.	.
=60-	=60	=60-	=60	=60	=60	=60	=60	=60	=60
2En\	la-	2En\	la-	2G/	la-	0r	.	0r	.
2D\	.	2D\	.	2B-X\	.	.	.	.	.
!	!	!LO:LB:g=original	!	!	!	!	!	!	!
=61	=61	=61	=61	=61	=61	=61	=61	=61	=61
(2F\	-bo-	2F\	-bo-	4A\	-bo-	.	.	.	.
.	.	.	.	4B-\	.	.	.	.	.
2E\)	.	2E\	.	1c\	.	.	.	.	.
=62	=62	=62	=62	=62-	=62	=62	=62	=62	=62
2.D\	.	2.D/	.	.	.	2r	.	2r	.
.	.	.	.	2Bn\	-ri-	2f\	et	2f/	et
4D\	-ri-	4D/	-ri-	.	.	.	.	.	.
=63-	=63	=63	=63	=63	=63	=63	=63	=63	=63
2C/	-bus.	2C/	-bus.	2c,<\	-bus	(2e\	com-	(2g\	com-
2r	.	2r	.	2r	.	2d\)	.	2b-\)	.
=64	=64	=64	=64	=64	=64	=64	=64	=64	=64
0r	.	0r	.	0r	.	(2f\	-ple-	4a\	-ple-
.	.	.	.	.	.	.	.	4b-\	.
.	.	.	.	.	.	2e\)	.	1cc\	.
=65	=65	=65	=65	=65-	=65	=65	=65	=65-	=65
!	!	!	!	!LO:SIC:v:custos A	!	!	!	!	!
.	.	.	.	.	.	1d\	.	.	.
!	!	!	!	!	!	!	!	!LO:SIC:v:custos cc	!
.	.	.	.	.	.	.	.	2bn\	.
!	!	!	!	!LO:LB:g=original	!	!	!	!LO:LB:g=original	!
=66-	=66	=66	=66	=66	=66	=66	=66	=66	=66
2r	.	2r	.	2r	.	1c\,<	-vit	1cc\,<	-vit
2F\	com-	2F\	com-	2A/	com-	.	.	.	.
!LO:LB;g=original	!	!	!	!	!	!	!	!	!
=67	=67	=67	=67	=67	=67	=67	=67	=67	=67
(4F\	-ple-	(4F\	-ple-	(4A/	-ple-	1r	.	1r	.
4D\	.	4D\	.	4B-/	.	.	.	.	.
2E\)	.	2E\)	.	2G/)	.	.	.	.	.
=68-	=68	=68	=68	=68	=68	=68	=68	=68	=68
1F\,<	-vit	1F\,<	-vit	1A\,<	-vit	2c\	com-	2cc\	com-
.	.	.	.	.	.	(2.f\	-ple-	(2.a\	-ple-
=69	=69	=69	=69	=69	=69	=69-	=69	=69-	=69
!	!	!LO:TX:a:t=1.	!	!	!	!	!	!	!
1r	.	1r	.	1r	.	.	.	.	.
.	.	.	.	.	.	4d\)	.	4b-\)	.
!	!	!	!	!	!	!LO:SIC:v:custos f	!	!	!
.	.	.	.	.	.	2e\	.	2g\	.
!	!	!	!	!	!	!LO:LB:g=original	!	!	!
=70	=70	=70	=70	=70	=70	=70	=70	=70	=70
2F\	la-	2F\	la-	2A/	la-	1f\,<	-vit,	1a\,<	-vit.
(<1F\	-bo-	[<2F\	-bo-	1A\	-bo-	.	.	.	.
=71	=71	=71	=71	=71-	=71	=71	=71	=71	=71
.	.	2F\]	.	.	.	0r	.	0r	.
2C,</)	-res	2C,</	-res	2c,<\	-res	.	.	.	.
=72	=72	=72	=72	=72	=72	=72	=72	=72	=72
2D,<\	il-	(2D\	il-	1B-\	il-	.	.	.	.
2E\	.	2E\)	.	.	.	.	.	.	.
=73	=73	=73	=73	=73-	=73	=73	=73	=73	=73
1F\	-li-	1F\	-li-	1A\	-li-	2.f\	ho-	1r	.
.	.	.	.	.	.	4f\	-ne-	.	.
=74-	=74	=74-	=74	=74-	=74	=74	=74	=74	=74
1C/,<	-us,	1C/,<	-us,	0G/,<	-us,	2e\	-sta-	2.cc\	Ho-
.	.	.	.	.	.	2c,</	-vit	.	.
.	.	.	.	.	.	.	.	4cc\	-ne-
=75	=75	=75	=75	=75-	=75	=75	=75	=75	=75
1r	.	1r	.	.	.	2d\	il-	2b-X\	-sta-
.	.	.	.	.	.	2e\	-lum	2g,<\	-vit
=76	=76	=76	=76	=76	=76	=76	=76	=76	=76
2.F\	ho-	2.F\	ho-	1r	.	(4f\	in-	4a\	il-
.	.	.	.	.	.	4g\)	.	4b-\	.
.	.	.	.	.	.	(4a\	-la-	1cc\	.
4F\	-ne-	4F\	-ne-	.	.	4f\)	.	.	.
=77	=77	=77	=77	=77	=77	=77	=77	=77-	=77
2EnX\	-ſta-	2E\	-sta-	2.c\	ho-	(2g\	-bo-	.	.
2C,</	-vit	2C/	-vit	.	.	2e\)	.	2g/	.
.	.	.	.	4c\	-ne-	.	.	.	.
!	!	!LO:LB:g=original	!	!	!	!	!	!	!
=78	=78	=78	=78	=78	=78	=78	=78	=78	=78
2D\	il-	2D/	il-	2B-\	-sta-	2f\	.	(2dd\	-lum
2E,<\	-lum	2E,</	-lum	2G,</	-vit	2g\	-ri-	2cc\)	.
=79-	=79	=79	=79	=79	=79	=79-	=79	=79	=79
2F\	in	2F\	in	2A\	in	1f\,<	-bus.	4r	.
.	.	.	.	.	.	.	.	2ff\	ho-
2D/	la-	2D/	la-	2Bn\	la-	.	.	.	.
.	.	.	.	.	.	.	.	4ff\	-ne-
=80-	=80	=80	=80	=80	=80	=80	=80	=80	=80
2.C/	-bo-	2.C/	-bo-	2.c\	-bo-	1r	.	2een\	-sta-
.	.	.	.	.	.	.	.	2cc,<\	-vit
4C/	-ri-	4C/	-ri-	4c\	-ri-	.	.	.	.
!LO:LB:g=original	!	!	!	!	!	!	!	!	!
=81	=81	=81	=81	=81	=81	=81	=81	=81	=81
2BB-,</	-bus	2BB-,</	-bus	1G/,<	-bus	2.g\	ho-	2dd\	il-
2GG/	in-	2GG/	in-	.	.	.	.	2ee\	-lum
.	.	.	.	.	.	4g\	-ne-	.	.
!	!	!	!	!	!	!	!	!LO:LB:g=original	!
=82	=82	=82	=82	=82	=82	=82	=82	=82	=82
(2AA/	.	(2AA/	.	1r	.	2f\	-sta-	2ff\	in
2BB-/)	.	2BB-/)	.	.	.	2d,<\	-vit	2ff\	la-
!	!	!	!	!LO:LB:g=original	!	!	!	!	!
=83	=83	=83	=83	=83	=83	=83	=83	=83	=83
2,<C/	.	2C/	.	2.c\	ho-	2e,<\	in	2cc\	-bo-
2AA/	-la-	2AA/	-la-	.	.	2f\	la-	1f/	.
.	.	.	.	4c\	-ne-	.	.	.	.
=84-	=84	=84	=84	=84	=84	=84	=84	=84-	=84
2GG/	-bo-	2GG/	-bo-	2B-\	-sta-	2.g\	-bo-	.	.
2G\	.	2G\	.	2G,</	-vit	.	.	2e/	.
!	!	!	!	!	!	!LO:SIC:v:custos c	!	!	!
.	.	.	.	.	.	4g\	-ri-	.	.
!	!	!	!	!	!	!LO:LB:g=original	!	!	!
=85	=85	=85	=85	=85	=85	=85	=85	=85	=85
1F\	.	1F\	.	4A\	in	1c\,<	-bus,	2.f/	.
.	.	.	.	4B-\	la-	.	.	.	.
.	.	.	.	1c\	-bo-	.	.	.	.
.	.	.	.	.	.	.	.	4e/	.
=86-	=86	=86	=86	=86-	=86	=86	=86	=86	=86
2G\	.	2G\	.	.	.	2r	.	4d/	.
.	.	.	.	.	.	.	.	4c/	.
2GG/	-ri-	2GG/	-ri-	2Bn\	-ri-	1g\	et	2d/	-ri-
=87	=87	=87	=87	=87	=87	=87-	=87	=87	=87
2C,</	-bus,	2C,</	-bus,	2c,<\	-bus,	.	.	2e,</	-bus
1C/	et	1C/	et	[<2c\	et	2g\	com-	1g\	et
=88-	=88	=88-	=88	=88	=88	=88	=88	=88-	=88
.	.	.	.	2c\]	.	2e\	-ple-	.	.
2C/	com-	2C/	com-	2c\	com-	2e,<\	-vit	2g\	com-
=89	=89	=89	=89	=89	=89	=89	=89	=89	=89
(2.F\	-ple-	2.F\	-ple-	1c\	-ple-	2f\	com-	1a\	-ple-
.	.	.	.	.	.	2.a\	-ple-	.	.
4E\)	.	4E\	.	.	.	.	.	.	.
=90-	=90	=90	=90	=90	=90	=90-	=90	=90-	=90
!LO:SIC:v:custos AA	!	!LO:SIC:v:custos AA	!	!	!	!	!	!	!
1D\	.	1D\	.	2d,<\	-vit	.	.	2a,<\	-vit
.	.	.	.	.	.	(4g\	.	.	.
.	.	.	.	1A\	et	2f\)	.	1dd\	et
!	!	!LO:LB:g=original	!	!	!	!	!	!	!
=91-	=91	=91	=91	=91-	=91	=91	=91	=91-	=91
2AA,</	-vit	2AA,</	-vit	.	.	1e\	.	.	.
*	*ij	*	*	*	*	*	*	*	*
2AA/	com-	2AA/	com-	2A/	com-	.	.	2cc#X\	com-
=92-	=92	=92	=92	=92	=92	=92-	=92	=92	=92
1D\	-ple-	1D\	-ple-	1A\	-ple-	2f#X,<\	-vit	2dd\	-ple-
.	.	.	.	.	.	2f#\	com-	1dd,\	-vit
=93-	=93	=93	=93	=93	=93	=93	=93	=93-	=93
2G,<\	-vit	2G,<\	-vit	2B-,<\	-vit	2g\	-ple-	.	.
*	*Xij	*	*	*	*	*	*	*	*
2G\	com-	2G\	com-	2B-\	com-	1g\	-vit	2dd\	la-
!LO:LB:g=original	!	!	!	!	!	!	!	!	!
=94	=94	=94	=94	=94	=94	=94-	=94	=94-	=94
!	!	!	!	!	!	!	!	!LO:TX:t=P:♮below:problem	!
2C/	-ple-	2C/	-ple-	2c\	-ple-	.	.	0een\	-bo-
*	*	*	*	*	*	*	*ij	*	*
1C,</	-vit	1C/	-vit	1c,<\	-vit	2g\	com-	.	.
=95-	=95	=95-	=95	=95-	=95	=95	=95	=95-	=95
.	.	.	.	.	.	2g\	-ple-	.	.
2C/	la-	2C/	la-	2c\	la-	2g,<\	-vit	.	.
*	*	*	*	*	*	*	*Xij	*	*
=96	=96	=96	=96	=96	=96	=96	=96	=96	=96
1F\	-bo-	1F\	-bo-	(2c\	-bo-	(2.a\	la-	2ff,<\	-res
!	!	!	!	!LO:SIC:v:custos B-	!	!	!	!	!
.	.	.	.	2A/)	.	.	.	2cc\	la-
.	.	.	.	.	.	4g\)	.	.	.
!	!	!	!	!LO:PB:g=original	!	!	!	!	!
=97-	=97	=97	=97	=97	=97	=97	=97	=97	=97
2D,<\	-res	2D,<\	-res	2B-,<\	-res,	2f\	-bo-	2dd\	-bo-
(1E-X\	il-	1E-X\	il-	2B-\	il-	1g\	-res	1b-,<\	-res
=98-	=98	=98-	=98	=98	=98	=98-	=98	=98-	=98
.	.	.	.	2G/	-li-	.	.	.	.
2D\)	.	2D\	.	1B-\	.	2f\	il-	2b-\	il-
=99-	=99	=99	=99	=99-	=99	=99	=99	=99	=99
!	!	!	!	!	!	!LO:SIC:v:custos d	!	!LO:SIC:v:custos f	!
1C/	-li-	1C/	-li-	.	.	1e-X\	-li-	1cc\	-li-
.	.	.	.	2A\	.	.	.	.	.
!	!	!	!	!	!	!LO:PB:g=original	!	!LO:PB:g=original	!
=100-	=100	=100	=100	=100	=100	=100	=100	=100	=100
1BB-/,<	-us	1BB-/,<	-us	0B-\	-us	2d,<\	-us	2f,</	-us,
.	.	.	.	.	.	2f\	com-	2f/	com-
=101	=101	=101	=101	=101-	=101	=101	=101	=101	=101
2r	.	2r	.	.	.	1d\	-ple-	2ff\	-ple-
2B-\	com-	2B-\	com-	.	.	.	.	1dd\	-vit
=102-	=102	=102	=102	=102	=102	=102	=102	=102-	=102
1G\	-ple-	1G\	-ple-	1r	.	2B-,</	-vit	.	.
.	.	.	.	.	.	2g\	la-	2b-\	la-
=103-	=103	=103	=103	=103	=103	=103	=103	=103	=103
1F\,<	-vit	1F\	-vit	2r	.	2.a\	-bo-	2cc\	-bo-
.	.	.	.	2f\	com-	.	.	[y2dd\	.
.	.	.	.	.	.	4g\	.	.	.
!	!	!LO:LB:g=original	!	!	!	!	!	!	!
=104	=104	=104	=104	=104	=104	=104	=104	=104-	=104
!	!	!	!	!	!	!	!	!LO:N:xstem:cue	!
2r	.	2r	.	1d\	-ple-	(4f\	.	4dd\]	.
.	.	.	.	.	.	4e\	.	4cc\	.
2G\	la-	2G\	la-	.	.	4d\)	.	2b-\	.
.	.	.	.	.	.	4g\	.	.	.
=105	=105	=105	=105	=105	=105	=105	=105	=105	=105
2.A\	-bo-	2.A\	-bo-	2c,<\	-vit	2e,<\	-res	1.,<a\	-res
.	.	.	.	2c\	la-	[<2a\	il-	.	.
4G\	.	4G\	.	.	.	.	.	.	.
=106	=106	=106	=106	=106	=106	=106	=106	=106-	=106
!	!	!	!	!	!	!LO:N:xstem:cue	!	!	!
4F\	.	4F\	.	2c\	-bo-	4a\]	.	.	.
!	!	!LO:SIC:v:s=4E-	!	!	!	!	!	!	!
4E-\	.	4E\	.	.	.	4g\	.	.	.
4D\	.	4D/	.	[<2d\	.	[2f\	.	2a\	il-
4C\	.	4C/	.	.	.	.	.	.	.
=107	=107	=107	=107	=107	=107	=107	=107	=107	=107
!	!	!	!	!LO:N:xstem:cue	!	!	!	!	!
1BB-/	.	1BB-/	.	4d\]	.	1f\]	.	2b-\	-li-
.	.	.	.	4c\	.	.	.	.	.
.	.	.	.	4B-\	.	.	.	1dd\	.
.	.	.	.	4A\	.	.	.	.	.
=108-	=108	=108	=108	=108	=108	=108	=108	=108-	=108
2C,</	-res	2C,</	-res	0G/	.	1en\	.	.	.
2C/	il-	2C/	il-	.	.	.	.	1cc\	.
=109-	=109	=109	=109	=109-	=109	=109	=109	=109-	=109
!	!	!	!	!LO:SIC:v:custos G	!	!	!	!	!
2G\	-li-	1GG/	-li-	.	.	1d\	-li-	.	.
!LO:TX:a:t=P:problem=custos C	!	!	!	!	!	!	!	!	!
2GG/	.	.	.	.	.	.	.	2bn\	.
!LO:LB:g=original	!	!	!	!LO:LB:g=original	!	!	!	!	!
=110	=110	=110	=110	=110	=110	=110	=110	=110	=110
2C,</	-us	2C,</	-us	2G,</	-res	2e,<\	-us	2cc,<\	-us,
2G\	la-	2G\	la-	2B-\	la-	2g\	la-	2dd\	la-
!	!	!	!	!	!	!LO:LB:g=original	!	!	!
=111	=111	=111	=111	=111	=111	=111	=111	=111	=111
(2E-X\	-bo-	(2E-X\	-bo-	1c\	-bo-	(2g\	-bo-	1ee-X\	-bo-
2C/)	.	2C/)	.	.	.	2e-X\)	.	.	.
=112	=112	=112	=112	=112	=112	=112	=112	=112	=112
2GG/	-res	2GG,</	-res	2B-,<\	-res	2g,<\	-res	2dd,<\	-res
*	*ij	*	*	*	*	*	*	*	*
2D\	la-	2D\	la-	2d\	la-	1f\	la-	1dd\	la-
=113	=113	=113	=113	=113	=113	=113-	=113	=113-	=113
!LO:SIC:v:custos C	!	!LO:SIC:v:custos C	!	!	!	!	!	!	!
1E-X\	-bo-	1E-X\	-bo-	2B-\	-bo-	.	.	.	.
.	.	.	.	2G/	.	2e-X\	-bo-	4cc\	.
!	!	!	!	!	!	!	!	!LO:SIC:v:custos a	!
.	.	.	.	.	.	.	.	4b-\	.
!	!	!LO:LB:g=original	!	!	!	!	!	!LO:LB:g=original	!
=114	=114	=114	=114	=114	=114	=114	=114	=114	=114
2C/	-res	2C/	-res	2G,</	-res	2e-X,<\	-res	2a\	-bo-
*	*Xij	*	*	*	*	*	*	*	*
2C/	il-	2C/	il-	2G/	il-	2e-\	il-	1a,<\	-res
=115	=115	=115	=115	=115	=115	=115	=115	=115-	=115
[<1D\	-li-	0D\	-li-	2F#X/	-li-	[<1d\	-li-	.	.
.	.	.	.	1G/	.	.	.	2b-\	il-
=116	=116	=116	=116	=116-	=116	=116	=116	=116	=116
1D\]	.	.	.	.	.	1d\]	.	1a\	-li-
.	.	.	.	2F#X/	.	.	.	.	.
=117	=117	=117	=117	=117	=117	=117	=117	=117-	=117
0GG/;	-us.	0GG/;	-us.	0G/;	-us.	0d\;	-us.	0bn\;	-us.
!LO:TX:b:t=Vertat[ur]	!	!	!	!	!	!	!	!	!
==	==	==	==	==	==	==	==	==	==
*-	*-	*-	*-	*-	*-	*-	*-	*-	*-
!!!system-decoration: [(s1,s2,s3,s4)]s5
!!!RDF**kern: > = above
!!!RDF**kern: < = below
!!!EED: Leszek Kubiak
!!!EST: 2021-02-18
!!!AIN: 1 alto 2 empty 1 tenor 1 vox
!!!ENC: Andrzej Borzym
!!!END: 2021-02-12
